X: 126
T: Hughie Shorty's Reel
T: Reel, G
C: Johnny Wilmot
L: 1/16
M: 2/2
K: G
|: G4B2G2 c2A2F2A2| G2A2B2d2 g4f2g2| e2c2A2c2 d2B2G2B2| c2A2A2B2 A2F2D2F2| 
G4B2G2 c2A2F2A2| G2A2B2d2 g4f2g2| e2c2A2c2 d2B2G2B2| c2A2G2F2 G8:| 
|: g4d2g2 b2g2a2g2| e2c2c1c1c2 e2f2g2e2| d2B2B1B1B2 d2B2G2B2| c2A2A2B2 A2F2D4| 
[1 g4d2g2 b2g2a2g2| e2c2c1c1c2 e2f2g2e2| d2B2B1B1B2 d2B2G2B2| c2A2G2F2 G8:| 
[2 C4E2C2 B,2D2G2B2| c2d2e2f2 g4f2g2| e2c2A2c2 d2B2G2B2| c2A2G2F2 G8||
